Obsidian-SemiLight/actions/24s/snap-page.svg

<svg viewBox="0 0 24 24" xmlns="http://www.w3.org/2000/svg"><path d="m5 4v16h10l4-4v-12zm1 1h12v10h-4v4h-8z" fill="#4d4d4d"/></svg>

<svg xmlns="http://www.w3.org/2000/svg" viewBox="0 0 24 24">
  <defs id="defs3051">
    <style type="text/css" id="current-color-scheme">
      .ColorScheme-Text {
        color:#4d4d4d;
      }
      </style>
  </defs>
 <path style="fill:currentColor;fill-opacity:1;stroke:none" 
     d="M 5 4 L 5 20 L 15 20 L 19 16 L 19 4 L 5 4 z M 6 5 L 18 5 L 18 15 L 14 15 L 14 19 L 6 19 L 6 5 z "
     class="ColorScheme-Text"
     />
</svg>
